images/Chk1N35.svg

<?xml version="1.0" encoding="UTF-8"?>
<svg xmlns="http://www.w3.org/2000/svg" xmlns:xlink="http://www.w3.org/1999/xlink" width="300pt" height="300pt" viewBox="0 0 300 300" version="1.1">
<defs>
<g>
<symbol overflow="visible" id="glyph0-0">
<path style="stroke:none;" d="M 0.546875 1.9375 L 0.546875 -7.75 L 6.046875 -7.75 L 6.046875 1.9375 Z M 1.171875 1.328125 L 5.4375 1.328125 L 5.4375 -7.140625 L 1.171875 -7.140625 Z M 1.171875 1.328125 "/>
</symbol>
<symbol overflow="visible" id="glyph0-1">
<path style="stroke:none;" d="M 1.078125 -8.015625 L 2.171875 -8.015625 L 2.171875 -4.734375 L 6.109375 -4.734375 L 6.109375 -8.015625 L 7.1875 -8.015625 L 7.1875 0 L 6.109375 0 L 6.109375 -3.8125 L 2.171875 -3.8125 L 2.171875 0 L 1.078125 0 Z M 1.078125 -8.015625 "/>
</symbol>
<symbol overflow="visible" id="glyph0-2">
<path style="stroke:none;" d="M 4.328125 -7.28125 C 3.546875 -7.28125 2.921875 -6.984375 2.453125 -6.390625 C 1.992188 -5.804688 1.765625 -5.007812 1.765625 -4 C 1.765625 -2.988281 1.992188 -2.1875 2.453125 -1.59375 C 2.921875 -1.007812 3.546875 -0.71875 4.328125 -0.71875 C 5.117188 -0.71875 5.742188 -1.007812 6.203125 -1.59375 C 6.660156 -2.1875 6.890625 -2.988281 6.890625 -4 C 6.890625 -5.007812 6.660156 -5.804688 6.203125 -6.390625 C 5.742188 -6.984375 5.117188 -7.28125 4.328125 -7.28125 Z M 4.328125 -8.171875 C 5.453125 -8.171875 6.351562 -7.789062 7.03125 -7.03125 C 7.707031 -6.28125 8.046875 -5.269531 8.046875 -4 C 8.046875 -2.738281 7.707031 -1.726562 7.03125 -0.96875 C 6.351562 -0.21875 5.453125 0.15625 4.328125 0.15625 C 3.203125 0.15625 2.300781 -0.21875 1.625 -0.96875 C 0.957031 -1.71875 0.625 -2.726562 0.625 -4 C 0.625 -5.269531 0.957031 -6.28125 1.625 -7.03125 C 2.300781 -7.789062 3.203125 -8.171875 4.328125 -8.171875 Z M 4.328125 -8.171875 "/>
</symbol>
<symbol overflow="visible" id="glyph0-3">
<path style="stroke:none;" d="M 7.078125 -7.40625 L 7.078125 -6.25 C 6.710938 -6.59375 6.320312 -6.847656 5.90625 -7.015625 C 5.5 -7.179688 5.0625 -7.265625 4.59375 -7.265625 C 3.675781 -7.265625 2.972656 -6.984375 2.484375 -6.421875 C 2.003906 -5.867188 1.765625 -5.0625 1.765625 -4 C 1.765625 -2.945312 2.003906 -2.140625 2.484375 -1.578125 C 2.972656 -1.015625 3.675781 -0.734375 4.59375 -0.734375 C 5.0625 -0.734375 5.5 -0.816406 5.90625 -0.984375 C 6.320312 -1.148438 6.710938 -1.40625 7.078125 -1.75 L 7.078125 -0.625 C 6.703125 -0.363281 6.300781 -0.164062 5.875 -0.03125 C 5.457031 0.09375 5.007812 0.15625 4.53125 0.15625 C 3.320312 0.15625 2.367188 -0.210938 1.671875 -0.953125 C 0.972656 -1.703125 0.625 -2.71875 0.625 -4 C 0.625 -5.289062 0.972656 -6.304688 1.671875 -7.046875 C 2.367188 -7.796875 3.320312 -8.171875 4.53125 -8.171875 C 5.007812 -8.171875 5.460938 -8.101562 5.890625 -7.96875 C 6.316406 -7.84375 6.710938 -7.65625 7.078125 -7.40625 Z M 7.078125 -7.40625 "/>
</symbol>
<symbol overflow="visible" id="glyph0-4">
<path style="stroke:none;" d="M 1.03125 -8.359375 L 2.03125 -8.359375 L 2.03125 0 L 1.03125 0 Z M 1.03125 -8.359375 "/>
</symbol>
<symbol overflow="visible" id="glyph0-5">
<path style="stroke:none;" d="M 1.078125 -8.015625 L 2.546875 -8.015625 L 6.09375 -1.3125 L 6.09375 -8.015625 L 7.15625 -8.015625 L 7.15625 0 L 5.6875 0 L 2.125 -6.703125 L 2.125 0 L 1.078125 0 Z M 1.078125 -8.015625 "/>
</symbol>
</g>
</defs>
<g id="surface337">
<rect x="0" y="0" width="300" height="300" style="fill:rgb(100%,100%,100%);fill-opacity:1;stroke:none;"/>
<path style="fill:none;stroke-width:1.2;stroke-linecap:butt;stroke-linejoin:miter;stroke:rgb(100%,0%,0%);stroke-opacity:1;stroke-miterlimit:10;" d="M 35.25 162.835938 L 47.984375 164.511719 "/>
<path style="fill:none;stroke-width:1.2;stroke-linecap:butt;stroke-linejoin:miter;stroke:rgb(0%,0%,0%);stroke-opacity:1;stroke-miterlimit:10;" d="M 47.984375 164.511719 L 60.714844 166.183594 "/>
<path style=" stroke:none;fill-rule:nonzero;fill:rgb(100%,100%,100%);fill-opacity:1;" d="M 18.25 156.335938 L 35.25 156.335938 L 35.25 169.335938 L 18.25 169.335938 Z M 18.25 156.335938 "/>
<g style="fill:rgb(100%,0%,0%);fill-opacity:1;">
  <use xlink:href="#glyph0-1" x="18.25" y="166.237305"/>
  <use xlink:href="#glyph0-2" x="26.274414" y="166.237305"/>
</g>
<path style="fill:none;stroke-width:1.2;stroke-linecap:butt;stroke-linejoin:miter;stroke:rgb(0%,0%,0%);stroke-opacity:1;stroke-miterlimit:10;" d="M 57.925781 167.339844 L 62.84375 179.203125 "/>
<path style="fill:none;stroke-width:1.2;stroke-linecap:butt;stroke-linejoin:miter;stroke:rgb(100%,0%,0%);stroke-opacity:1;stroke-miterlimit:10;" d="M 62.84375 179.203125 L 67.761719 191.070312 "/>
<path style="fill:none;stroke-width:1.2;stroke-linecap:butt;stroke-linejoin:miter;stroke:rgb(0%,0%,0%);stroke-opacity:1;stroke-miterlimit:10;" d="M 63.507812 165.027344 L 68.425781 176.890625 "/>
<path style="fill:none;stroke-width:1.2;stroke-linecap:butt;stroke-linejoin:miter;stroke:rgb(100%,0%,0%);stroke-opacity:1;stroke-miterlimit:10;" d="M 68.425781 176.890625 L 73.34375 188.753906 "/>
<path style="fill:none;stroke-width:1.2;stroke-linecap:butt;stroke-linejoin:miter;stroke:rgb(0%,0%,0%);stroke-opacity:1;stroke-miterlimit:10;" d="M 60.714844 166.183594 L 76.347656 145.800781 "/>
<path style=" stroke:none;fill-rule:nonzero;fill:rgb(100%,100%,100%);fill-opacity:1;" d="M 66.550781 183.410156 L 75.550781 183.410156 L 75.550781 196.410156 L 66.550781 196.410156 Z M 66.550781 183.410156 "/>
<g style="fill:rgb(100%,0%,0%);fill-opacity:1;">
  <use xlink:href="#glyph0-2" x="66.550781" y="193.311523"/>
</g>
<path style="fill:none;stroke-width:1.2;stroke-linecap:butt;stroke-linejoin:miter;stroke:rgb(0%,0%,0%);stroke-opacity:1;stroke-miterlimit:10;" d="M 76.347656 145.800781 L 66.511719 122.074219 "/>
<path style="fill:none;stroke-width:1.2;stroke-linecap:butt;stroke-linejoin:miter;stroke:rgb(0%,0%,0%);stroke-opacity:1;stroke-miterlimit:10;" d="M 80.949219 141.113281 L 73.078125 122.132812 "/>
<path style="fill:none;stroke-width:1.2;stroke-linecap:butt;stroke-linejoin:miter;stroke:rgb(0%,0%,0%);stroke-opacity:1;stroke-miterlimit:10;" d="M 101.816406 149.148438 L 76.347656 145.800781 "/>
<path style="fill:none;stroke-width:1.2;stroke-linecap:butt;stroke-linejoin:miter;stroke:rgb(0%,0%,0%);stroke-opacity:1;stroke-miterlimit:10;" d="M 66.511719 122.074219 L 82.144531 101.691406 "/>
<path style="fill:none;stroke-width:1.2;stroke-linecap:butt;stroke-linejoin:miter;stroke:rgb(0%,0%,0%);stroke-opacity:1;stroke-miterlimit:10;" d="M 82.144531 101.691406 L 107.613281 105.039062 "/>
<path style="fill:none;stroke-width:1.2;stroke-linecap:butt;stroke-linejoin:miter;stroke:rgb(0%,0%,0%);stroke-opacity:1;stroke-miterlimit:10;" d="M 83.902344 108.019531 L 104.277344 110.695312 "/>
<path style="fill:none;stroke-width:1.2;stroke-linecap:butt;stroke-linejoin:miter;stroke:rgb(0%,0%,0%);stroke-opacity:1;stroke-miterlimit:10;" d="M 107.613281 105.039062 L 115.425781 94.847656 "/>
<path style="fill:none;stroke-width:1.2;stroke-linecap:butt;stroke-linejoin:miter;stroke:rgb(0%,80%,0%);stroke-opacity:1;stroke-miterlimit:10;" d="M 115.425781 94.847656 L 123.242188 84.65625 "/>
<path style="fill:none;stroke-width:1.2;stroke-linecap:butt;stroke-linejoin:miter;stroke:rgb(0%,0%,0%);stroke-opacity:1;stroke-miterlimit:10;" d="M 107.613281 105.039062 L 117.445312 128.765625 "/>
<path style=" stroke:none;fill-rule:nonzero;fill:rgb(100%,100%,100%);fill-opacity:1;" d="M 118.242188 78.15625 L 129.242188 78.15625 L 129.242188 91.15625 L 118.242188 91.15625 Z M 118.242188 78.15625 "/>
<g style="fill:rgb(0%,80%,0%);fill-opacity:1;">
  <use xlink:href="#glyph0-3" x="118.242188" y="88.057617"/>
  <use xlink:href="#glyph0-4" x="125.693359" y="88.057617"/>
</g>
<path style="fill:none;stroke-width:1.2;stroke-linecap:butt;stroke-linejoin:miter;stroke:rgb(0%,0%,0%);stroke-opacity:1;stroke-miterlimit:10;" d="M 117.445312 128.765625 L 101.816406 149.148438 "/>
<path style="fill:none;stroke-width:1.2;stroke-linecap:butt;stroke-linejoin:miter;stroke:rgb(0%,0%,0%);stroke-opacity:1;stroke-miterlimit:10;" d="M 111.089844 127.128906 L 98.582031 143.433594 "/>
<path style="fill:none;stroke-width:1.2;stroke-linecap:butt;stroke-linejoin:miter;stroke:rgb(0%,0%,0%);stroke-opacity:1;stroke-miterlimit:10;" d="M 101.816406 149.148438 L 106.734375 161.011719 "/>
<path style="fill:none;stroke-width:1.2;stroke-linecap:butt;stroke-linejoin:miter;stroke:rgb(0%,0%,100%);stroke-opacity:1;stroke-miterlimit:10;" d="M 106.734375 161.011719 L 111.648438 172.875 "/>
<path style="fill:none;stroke-width:1.2;stroke-linecap:butt;stroke-linejoin:miter;stroke:rgb(0%,0%,100%);stroke-opacity:1;stroke-miterlimit:10;" d="M 111.648438 172.875 L 124.382812 174.550781 "/>
<path style="fill:none;stroke-width:1.2;stroke-linecap:butt;stroke-linejoin:miter;stroke:rgb(0%,0%,0%);stroke-opacity:1;stroke-miterlimit:10;" d="M 124.382812 174.550781 L 137.117188 176.222656 "/>
<path style=" stroke:none;fill-rule:nonzero;fill:rgb(100%,100%,100%);fill-opacity:1;" d="M 103.648438 166.375 L 120.648438 166.375 L 120.648438 179.375 L 103.648438 179.375 Z M 103.648438 166.375 "/>
<g style="fill:rgb(0%,0%,100%);fill-opacity:1;">
  <use xlink:href="#glyph0-5" x="103.648438" y="176.276367"/>
  <use xlink:href="#glyph0-1" x="111.631836" y="176.276367"/>
</g>
<path style="fill:none;stroke-width:1.2;stroke-linecap:butt;stroke-linejoin:miter;stroke:rgb(0%,0%,0%);stroke-opacity:1;stroke-miterlimit:10;" d="M 137.117188 176.222656 L 146.953125 199.953125 "/>
<path style="fill:none;stroke-width:1.2;stroke-linecap:butt;stroke-linejoin:miter;stroke:rgb(0%,0%,0%);stroke-opacity:1;stroke-miterlimit:10;" d="M 143.683594 176.28125 L 151.550781 195.265625 "/>
<path style="fill:none;stroke-width:1.2;stroke-linecap:butt;stroke-linejoin:miter;stroke:rgb(0%,0%,0%);stroke-opacity:1;stroke-miterlimit:10;" d="M 152.75 155.839844 L 137.117188 176.222656 "/>
<path style="fill:none;stroke-width:1.2;stroke-linecap:butt;stroke-linejoin:miter;stroke:rgb(0%,0%,0%);stroke-opacity:1;stroke-miterlimit:10;" d="M 146.953125 199.953125 L 172.417969 203.296875 "/>
<path style="fill:none;stroke-width:1.2;stroke-linecap:butt;stroke-linejoin:miter;stroke:rgb(0%,0%,0%);stroke-opacity:1;stroke-miterlimit:10;" d="M 172.417969 203.296875 L 188.050781 182.917969 "/>
<path style="fill:none;stroke-width:1.2;stroke-linecap:butt;stroke-linejoin:miter;stroke:rgb(0%,0%,0%);stroke-opacity:1;stroke-miterlimit:10;" d="M 169.1875 197.582031 L 181.691406 181.277344 "/>
<path style="fill:none;stroke-width:1.2;stroke-linecap:butt;stroke-linejoin:miter;stroke:rgb(0%,0%,0%);stroke-opacity:1;stroke-miterlimit:10;" d="M 188.050781 182.917969 L 212.734375 190.019531 "/>
<path style="fill:none;stroke-width:1.2;stroke-linecap:butt;stroke-linejoin:miter;stroke:rgb(0%,0%,0%);stroke-opacity:1;stroke-miterlimit:10;" d="M 178.214844 159.1875 L 188.050781 182.917969 "/>
<path style="fill:none;stroke-width:1.2;stroke-linecap:butt;stroke-linejoin:miter;stroke:rgb(0%,0%,0%);stroke-opacity:1;stroke-miterlimit:10;" d="M 209.753906 190.527344 L 211.910156 203.1875 "/>
<path style="fill:none;stroke-width:1.2;stroke-linecap:butt;stroke-linejoin:miter;stroke:rgb(100%,0%,0%);stroke-opacity:1;stroke-miterlimit:10;" d="M 211.910156 203.1875 L 214.0625 215.851562 "/>
<path style="fill:none;stroke-width:1.2;stroke-linecap:butt;stroke-linejoin:miter;stroke:rgb(0%,0%,0%);stroke-opacity:1;stroke-miterlimit:10;" d="M 215.714844 189.515625 L 217.867188 202.175781 "/>
<path style="fill:none;stroke-width:1.2;stroke-linecap:butt;stroke-linejoin:miter;stroke:rgb(100%,0%,0%);stroke-opacity:1;stroke-miterlimit:10;" d="M 217.867188 202.175781 L 220.023438 214.835938 "/>
<path style="fill:none;stroke-width:1.2;stroke-linecap:butt;stroke-linejoin:miter;stroke:rgb(0%,0%,0%);stroke-opacity:1;stroke-miterlimit:10;" d="M 212.734375 190.019531 L 223.207031 182.585938 "/>
<path style="fill:none;stroke-width:1.2;stroke-linecap:butt;stroke-linejoin:miter;stroke:rgb(0%,0%,100%);stroke-opacity:1;stroke-miterlimit:10;" d="M 223.207031 182.585938 L 233.679688 175.152344 "/>
<path style=" stroke:none;fill-rule:nonzero;fill:rgb(100%,100%,100%);fill-opacity:1;" d="M 213.042969 208.84375 L 222.042969 208.84375 L 222.042969 221.84375 L 213.042969 221.84375 Z M 213.042969 208.84375 "/>
<g style="fill:rgb(100%,0%,0%);fill-opacity:1;">
  <use xlink:href="#glyph0-2" x="213.042969" y="218.745117"/>
</g>
<path style="fill:none;stroke-width:1.2;stroke-linecap:butt;stroke-linejoin:miter;stroke:rgb(0%,0%,100%);stroke-opacity:1;stroke-miterlimit:10;" d="M 233.679688 175.152344 L 234.394531 162.328125 "/>
<path style="fill:none;stroke-width:1.2;stroke-linecap:butt;stroke-linejoin:miter;stroke:rgb(0%,0%,0%);stroke-opacity:1;stroke-miterlimit:10;" d="M 234.394531 162.328125 L 235.113281 149.507812 "/>
<path style=" stroke:none;fill-rule:nonzero;fill:rgb(100%,100%,100%);fill-opacity:1;" d="M 225.679688 168.652344 L 242.679688 168.652344 L 242.679688 181.652344 L 225.679688 181.652344 Z M 225.679688 168.652344 "/>
<g style="fill:rgb(0%,0%,100%);fill-opacity:1;">
  <use xlink:href="#glyph0-5" x="225.679688" y="178.553711"/>
  <use xlink:href="#glyph0-1" x="233.663086" y="178.553711"/>
</g>
<path style="fill:none;stroke-width:1.2;stroke-linecap:butt;stroke-linejoin:miter;stroke:rgb(0%,0%,0%);stroke-opacity:1;stroke-miterlimit:10;" d="M 235.113281 149.507812 L 259.507812 141.472656 "/>
<path style="fill:none;stroke-width:1.2;stroke-linecap:butt;stroke-linejoin:miter;stroke:rgb(0%,0%,0%);stroke-opacity:1;stroke-miterlimit:10;" d="M 235.660156 142.964844 L 255.179688 136.535156 "/>
<path style="fill:none;stroke-width:1.2;stroke-linecap:butt;stroke-linejoin:miter;stroke:rgb(0%,0%,0%);stroke-opacity:1;stroke-miterlimit:10;" d="M 215.957031 132.394531 L 235.113281 149.507812 "/>
<path style="fill:none;stroke-width:1.2;stroke-linecap:butt;stroke-linejoin:miter;stroke:rgb(0%,0%,0%);stroke-opacity:1;stroke-miterlimit:10;" d="M 259.507812 141.472656 L 264.75 116.328125 "/>
<path style="fill:none;stroke-width:1.2;stroke-linecap:butt;stroke-linejoin:miter;stroke:rgb(0%,0%,0%);stroke-opacity:1;stroke-miterlimit:10;" d="M 264.75 116.328125 L 245.59375 99.214844 "/>
<path style="fill:none;stroke-width:1.2;stroke-linecap:butt;stroke-linejoin:miter;stroke:rgb(0%,0%,0%);stroke-opacity:1;stroke-miterlimit:10;" d="M 258.808594 119.125 L 243.484375 105.433594 "/>
<path style="fill:none;stroke-width:1.2;stroke-linecap:butt;stroke-linejoin:miter;stroke:rgb(0%,0%,0%);stroke-opacity:1;stroke-miterlimit:10;" d="M 245.59375 99.214844 L 221.195312 107.25 "/>
<path style="fill:none;stroke-width:1.2;stroke-linecap:butt;stroke-linejoin:miter;stroke:rgb(0%,0%,0%);stroke-opacity:1;stroke-miterlimit:10;" d="M 221.195312 107.25 L 215.957031 132.394531 "/>
<path style="fill:none;stroke-width:1.2;stroke-linecap:butt;stroke-linejoin:miter;stroke:rgb(0%,0%,0%);stroke-opacity:1;stroke-miterlimit:10;" d="M 226.589844 110.996094 L 222.398438 131.113281 "/>
<path style="fill:none;stroke-width:1.2;stroke-linecap:butt;stroke-linejoin:miter;stroke:rgb(0%,0%,0%);stroke-opacity:1;stroke-miterlimit:10;" d="M 215.957031 132.394531 L 203.296875 134.550781 "/>
<path style="fill:none;stroke-width:1.2;stroke-linecap:butt;stroke-linejoin:miter;stroke:rgb(0%,0%,100%);stroke-opacity:1;stroke-miterlimit:10;" d="M 203.296875 134.550781 L 190.632812 136.703125 "/>
<path style="fill:none;stroke-width:1.2;stroke-linecap:butt;stroke-linejoin:miter;stroke:rgb(0%,0%,100%);stroke-opacity:1;stroke-miterlimit:10;" d="M 190.632812 136.703125 L 184.425781 147.945312 "/>
<path style="fill:none;stroke-width:1.2;stroke-linecap:butt;stroke-linejoin:miter;stroke:rgb(0%,0%,0%);stroke-opacity:1;stroke-miterlimit:10;" d="M 184.425781 147.945312 L 178.214844 159.1875 "/>
<path style=" stroke:none;fill-rule:nonzero;fill:rgb(100%,100%,100%);fill-opacity:1;" d="M 182.632812 130.203125 L 199.632812 130.203125 L 199.632812 143.203125 L 182.632812 143.203125 Z M 182.632812 130.203125 "/>
<g style="fill:rgb(0%,0%,100%);fill-opacity:1;">
  <use xlink:href="#glyph0-5" x="182.632812" y="140.104492"/>
  <use xlink:href="#glyph0-1" x="190.616211" y="140.104492"/>
</g>
<path style="fill:none;stroke-width:1.2;stroke-linecap:butt;stroke-linejoin:miter;stroke:rgb(0%,0%,0%);stroke-opacity:1;stroke-miterlimit:10;" d="M 178.214844 159.1875 L 152.75 155.839844 "/>
<path style="fill:none;stroke-width:1.2;stroke-linecap:butt;stroke-linejoin:miter;stroke:rgb(0%,0%,0%);stroke-opacity:1;stroke-miterlimit:10;" d="M 174.882812 164.84375 L 154.507812 162.167969 "/>
</g>
</svg>

<svg xmlns="http://www.w3.org/2000/svg" xmlns:xlink="http://www.w3.org/1999/xlink" width="300pt" height="300pt" viewBox="0 0 300 300"><defs><symbol overflow="visible"><path d="M.547 1.938V-7.75h5.5v9.688zm.625-.61h4.266v-8.47H1.171zm0 0"/></symbol><symbol overflow="visible" id="a"><path d="M1.078-8.016h1.094v3.282H6.11v-3.282h1.077V0H6.11v-3.813H2.17V0H1.078zm0 0"/></symbol><symbol overflow="visible" id="b"><path d="M4.328-7.28c-.78 0-1.406.296-1.875.89-.46.585-.687 1.382-.687 2.39 0 1.012.226 1.813.687 2.406.47.586 1.094.875 1.875.875.79 0 1.414-.288 1.875-.874.457-.593.688-1.394.688-2.406 0-1.008-.23-1.805-.687-2.39-.46-.594-1.086-.89-1.875-.89zm0-.892c1.125 0 2.024.383 2.703 1.14C7.708-6.28 8.048-5.27 8.048-4c0 1.262-.34 2.273-1.016 3.03C6.353-.22 5.454.157 4.33.157S2.3-.22 1.625-.97c-.668-.75-1-1.757-1-3.03 0-1.27.332-2.28 1-3.03.676-.76 1.578-1.142 2.703-1.142zm0 0"/></symbol><symbol overflow="visible" id="c"><path d="M7.078-7.406v1.156c-.367-.344-.758-.598-1.172-.766-.406-.164-.843-.25-1.312-.25-.918 0-1.62.282-2.11.844-.48.555-.718 1.36-.718 2.422 0 1.055.238 1.86.718 2.422.49.562 1.192.844 2.11.844.468 0 .906-.082 1.312-.25.414-.164.805-.422 1.172-.766v1.125c-.375.262-.777.46-1.203.594-.418.124-.867.186-1.344.186-1.21 0-2.163-.367-2.858-1.11C.972-1.703.625-2.718.625-4c0-1.29.348-2.305 1.047-3.047.695-.75 1.648-1.125 2.86-1.125.476 0 .93.07 1.36.203.424.126.82.314 1.186.564zm0 0"/></symbol><symbol overflow="visible" id="d"><path d="M1.03-8.36h1V0h-1zm0 0"/></symbol><symbol overflow="visible" id="e"><path d="M1.078-8.016h1.47l3.546 6.704v-6.704h1.062V0H5.688L2.124-6.703V0H1.078zm0 0"/></symbol></defs><g><path fill="#fff" d="M0 0h300v300H0z"/><path d="M35.25 162.836l12.734 1.676" stroke-width="1.2" stroke="#f00" stroke-miterlimit="10" fill="none"/><path d="M47.984 164.512l12.73 1.672" stroke-width="1.2" stroke="#000" stroke-miterlimit="10" fill="none"/><path d="M18.25 156.336h17v13h-17zm0 0" fill="#fff"/><g fill="#f00"><use xlink:href="#a" x="18.25" y="166.237"/><use xlink:href="#b" x="26.274" y="166.237"/></g><path d="M57.926 167.34l4.918 11.863" stroke-width="1.2" stroke="#000" stroke-miterlimit="10" fill="none"/><path d="M62.844 179.203l4.918 11.867" stroke-width="1.2" stroke="#f00" stroke-miterlimit="10" fill="none"/><path d="M63.508 165.027l4.918 11.864" stroke-width="1.2" stroke="#000" stroke-miterlimit="10" fill="none"/><path d="M68.426 176.89l4.918 11.864" stroke-width="1.2" stroke="#f00" stroke-miterlimit="10" fill="none"/><path d="M60.715 166.184L76.348 145.8" stroke-width="1.2" stroke="#000" stroke-miterlimit="10" fill="none"/><path d="M66.55 183.41h9v13h-9zm0 0" fill="#fff"/><use xlink:href="#b" x="66.551" y="193.312" fill="#f00"/><path d="M76.348 145.8l-9.836-23.726M80.95 141.113l-7.872-18.98M101.816 149.148L76.348 145.8M66.512 122.074l15.633-20.383M82.145 101.69l25.468 3.35M83.902 108.02l20.375 2.675M107.613 105.04l7.813-10.192" stroke-width="1.2" stroke="#000" stroke-miterlimit="10" fill="none"/><path d="M115.426 94.848l7.816-10.192" stroke-width="1.2" stroke="#0c0" stroke-miterlimit="10" fill="none"/><path d="M107.613 105.04l9.832 23.726" stroke-width="1.2" stroke="#000" stroke-miterlimit="10" fill="none"/><path d="M118.242 78.156h11v13h-11zm0 0" fill="#fff"/><g fill="#0c0"><use xlink:href="#c" x="118.242" y="88.058"/><use xlink:href="#d" x="125.693" y="88.058"/></g><path d="M117.445 128.766l-15.63 20.382M111.09 127.13l-12.508 16.304M101.816 149.148l4.918 11.864" stroke-width="1.2" stroke="#000" stroke-miterlimit="10" fill="none"/><path d="M106.734 161.012l4.914 11.863M111.648 172.875l12.735 1.676" stroke-width="1.2" stroke="#00f" stroke-miterlimit="10" fill="none"/><path d="M124.383 174.55l12.734 1.673" stroke-width="1.2" stroke="#000" stroke-miterlimit="10" fill="none"/><path d="M103.648 166.375h17v13h-17zm0 0" fill="#fff"/><g fill="#00f"><use xlink:href="#e" x="103.648" y="176.276"/><use xlink:href="#a" x="111.632" y="176.276"/></g><path d="M137.117 176.223l9.836 23.73M143.684 176.28l7.867 18.986M152.75 155.84l-15.633 20.383M146.953 199.953l25.465 3.344M172.418 203.297l15.633-20.38M169.188 197.582l12.503-16.305M188.05 182.918l24.684 7.102M178.215 159.188l9.836 23.73M209.754 190.527l2.156 12.66" stroke-width="1.2" stroke="#000" stroke-miterlimit="10" fill="none"/><path d="M211.91 203.188l2.153 12.664" stroke-width="1.2" stroke="#f00" stroke-miterlimit="10" fill="none"/><path d="M215.715 189.516l2.152 12.66" stroke-width="1.2" stroke="#000" stroke-miterlimit="10" fill="none"/><path d="M217.867 202.176l2.156 12.66" stroke-width="1.2" stroke="#f00" stroke-miterlimit="10" fill="none"/><path d="M212.734 190.02l10.473-7.434" stroke-width="1.2" stroke="#000" stroke-miterlimit="10" fill="none"/><path d="M223.207 182.586l10.473-7.434" stroke-width="1.2" stroke="#00f" stroke-miterlimit="10" fill="none"/><path d="M213.043 208.844h9v13h-9zm0 0" fill="#fff"/><use xlink:href="#b" x="213.043" y="218.745" fill="#f00"/><path d="M233.68 175.152l.715-12.824" stroke-width="1.2" stroke="#00f" stroke-miterlimit="10" fill="none"/><path d="M234.395 162.328l.718-12.82" stroke-width="1.2" stroke="#000" stroke-miterlimit="10" fill="none"/><path d="M225.68 168.652h17v13h-17zm0 0" fill="#fff"/><g fill="#00f"><use xlink:href="#e" x="225.68" y="178.554"/><use xlink:href="#a" x="233.663" y="178.554"/></g><path d="M235.113 149.508l24.395-8.035M235.66 142.965l19.52-6.43M215.957 132.395l19.156 17.113M259.508 141.473l5.242-25.145M264.75 116.328l-19.156-17.113M258.81 119.125l-15.326-13.69M245.594 99.215l-24.4 8.035M221.195 107.25l-5.238 25.145M226.59 110.996l-4.192 20.117M215.957 132.395l-12.66 2.156" stroke-width="1.2" stroke="#000" stroke-miterlimit="10" fill="none"/><path d="M203.297 134.55l-12.664 2.153M190.633 136.703l-6.207 11.242" stroke-width="1.2" stroke="#00f" stroke-miterlimit="10" fill="none"/><path d="M184.426 147.945l-6.21 11.243" stroke-width="1.2" stroke="#000" stroke-miterlimit="10" fill="none"/><path d="M182.633 130.203h17v13h-17zm0 0" fill="#fff"/><g fill="#00f"><use xlink:href="#e" x="182.633" y="140.104"/><use xlink:href="#a" x="190.616" y="140.104"/></g><path d="M178.215 159.188l-25.465-3.348M174.883 164.844l-20.375-2.676" stroke-width="1.2" stroke="#000" stroke-miterlimit="10" fill="none"/></g></svg>
